envergo/static/images/school_light.svg

<svg width="100" height="100" viewBox="0 0 100 100" fill="none" xmlns="http://www.w3.org/2000/svg">
<path fill-rule="evenodd" clip-rule="evenodd" d="M18.75 17.5C18.0607 17.5 17.5 16.9393 17.5 16.25C17.5 15.5607 18.0607 15 18.75 15C19.4393 15 20 15.5607 20 16.25C20 16.9393 19.4393 17.5 18.75 17.5Z" fill="#CACAFB"/>
<path fill-rule="evenodd" clip-rule="evenodd" d="M6.25 87.5C5.56075 87.5 5 86.9393 5 86.25C5 85.5607 5.56075 85 6.25 85C6.93925 85 7.5 85.5607 7.5 86.25C7.5 86.9393 6.93925 87.5 6.25 87.5Z" fill="#CACAFB"/>
<path fill-rule="evenodd" clip-rule="evenodd" d="M93.75 80C93.0607 80 92.5 79.4393 92.5 78.75C92.5 78.0607 93.0607 77.5 93.75 77.5C94.4393 77.5 95 78.0607 95 78.75C95 79.4393 94.4393 80 93.75 80Z" fill="#CACAFB"/>
<path fill-rule="evenodd" clip-rule="evenodd" d="M73.75 15C73.0607 15 72.5 14.4393 72.5 13.75C72.5 13.0607 73.0607 12.5 73.75 12.5C74.4393 12.5 75 13.0607 75 13.75C75 14.4393 74.4393 15 73.75 15Z" fill="#CACAFB"/>
<path d="M17.5079 47.0027C17.6078 45.8479 18.6361 45 19.8214 45H23.75L23.8958 45.0084C24.5174 45.0806 25 45.609 25 46.25L24.9916 46.3958C24.9194 47.0174 24.391 47.5 23.75 47.5H20V52.5H23.75L23.8958 52.5084C24.5174 52.5806 25 53.109 25 53.75C25 54.4404 24.4404 55 23.75 55H19.8214L19.6357 54.993C18.469 54.9053 17.5 53.9981 17.5 52.8125V47.1875L17.5079 47.0027Z" fill="#E1000F"/>
<path d="M34.9921 47.0027C34.8922 45.8479 33.8639 45 32.6786 45H28.75L28.6042 45.0084C27.9825 45.0806 27.5 45.609 27.5 46.25L27.5084 46.3958C27.5806 47.0174 28.109 47.5 28.75 47.5H32.5V52.5H28.75L28.6042 52.5084C27.9825 52.5806 27.5 53.109 27.5 53.75C27.5 54.4404 28.0596 55 28.75 55H32.6786L32.8643 54.993C34.031 54.9053 35 53.9981 35 52.8125V47.1875L34.9921 47.0027Z" fill="#E1000F"/>
<path d="M80.1786 45C81.3639 45 82.3922 45.8479 82.4921 47.0027L82.5 47.1875V52.8125C82.5 53.9981 81.531 54.9053 80.3643 54.993L80.1786 55H76.25C75.5596 55 75 54.4404 75 53.75C75 53.109 75.4826 52.5806 76.1042 52.5084L76.25 52.5H80V47.5H76.25C75.609 47.5 75.0806 47.0174 75.0084 46.3958L75 46.25C75 45.609 75.4826 45.0806 76.1042 45.0084L76.25 45H80.1786Z" fill="#E1000F"/>
<path d="M65.0079 47.0027C65.1078 45.8479 66.1361 45 67.3214 45H71.25L71.3958 45.0084C72.0174 45.0806 72.5 45.609 72.5 46.25L72.4916 46.3958C72.4194 47.0174 71.891 47.5 71.25 47.5H67.5V52.5H71.25L71.3958 52.5084C72.0174 52.5806 72.5 53.109 72.5 53.75C72.5 54.4404 71.9404 55 71.25 55H67.3214L67.1357 54.993C65.969 54.9053 65 53.9981 65 52.8125V47.1875L65.0079 47.0027Z" fill="#E1000F"/>
<path fill-rule="evenodd" clip-rule="evenodd" d="M17.5 60C16.1193 60 15 61.1193 15 62.5V70C15 71.3807 16.1193 72.5 17.5 72.5H22.5C23.8807 72.5 25 71.3807 25 70V62.5C25 61.1193 23.8807 60 22.5 60H17.5ZM22.5 70V62.5H17.5V70H22.5Z" fill="#E1000F"/>
<path fill-rule="evenodd" clip-rule="evenodd" d="M30 60C28.6193 60 27.5 61.1193 27.5 62.5V70C27.5 71.3807 28.6193 72.5 30 72.5H35C36.3807 72.5 37.5 71.3807 37.5 70V62.5C37.5 61.1193 36.3807 60 35 60H30ZM35 70V62.5H30V70H35Z" fill="#E1000F"/>
<path fill-rule="evenodd" clip-rule="evenodd" d="M65 60C63.6193 60 62.5 61.1193 62.5 62.5V70C62.5 71.3807 63.6193 72.5 65 72.5H70C71.3807 72.5 72.5 71.3807 72.5 70V62.5C72.5 61.1193 71.3807 60 70 60H65ZM70 70V62.5H65V70H70Z" fill="#E1000F"/>
<path fill-rule="evenodd" clip-rule="evenodd" d="M77.5 60C76.1193 60 75 61.1193 75 62.5V70C75 71.3807 76.1193 72.5 77.5 72.5H82.5C83.8807 72.5 85 71.3807 85 70V62.5C85 61.1193 83.8807 60 82.5 60H77.5ZM82.5 70V62.5H77.5V70H82.5Z" fill="#E1000F"/>
<path d="M44.6339 15.3661C44.1457 14.878 43.3543 14.878 42.8661 15.3661L25.3661 32.8661L25.2621 32.9839C24.8808 33.4742 24.9155 34.1833 25.3661 34.6339C25.8543 35.122 26.6457 35.122 27.1339 34.6339L44.6339 17.1339L44.7379 17.0161C45.1191 16.5258 45.0845 15.8167 44.6339 15.3661Z" fill="#000091"/>
<path d="M50.7311 17.7359C50.2521 17.3899 49.5845 17.4245 49.1433 17.8398L35.7727 30.4238L35.6652 30.5384C35.2692 31.017 35.2824 31.7268 35.7191 32.1908L35.8337 32.2983C36.3123 32.6943 37.0221 32.6811 37.4861 32.2443L49.9987 20.4663L70.0323 39.3205L70.1922 39.4588C70.6325 39.808 71.1796 40 71.7457 40H83.75L83.8958 39.9916C84.5174 39.9194 85 39.391 85 38.75C85 38.0596 84.4404 37.5 83.75 37.5H71.7457L50.8567 17.8398L50.7311 17.7359Z" fill="#000091"/>
<path d="M88.75 37.5C88.109 37.5 87.5806 37.9825 87.5084 38.6042L87.5 38.75V80H76.25C75.609 80 75.0806 80.4826 75.0084 81.1042L75 81.25C75 81.891 75.4826 82.4194 76.1042 82.4916L76.25 82.5H88.75C89.391 82.5 89.9194 82.0174 89.9916 81.3958L90 81.25V38.75C90 38.0596 89.4404 37.5 88.75 37.5Z" fill="#000091"/>
<path d="M26.25 80C26.9404 80 27.5 80.5596 27.5 81.25C27.5 81.891 27.0174 82.4194 26.3958 82.4916L26.25 82.5H16.25C15.5596 82.5 15 81.9404 15 81.25C15 80.609 15.4826 80.0806 16.1042 80.0084L16.25 80H26.25Z" fill="#000091"/>
<path d="M12.5 81.25C12.5 81.9404 11.9404 82.5 11.25 82.5C10.5596 82.5 10 81.9404 10 81.25C10 80.5596 10.5596 80 11.25 80C11.9404 80 12.5 80.5596 12.5 81.25Z" fill="#000091"/>
<path fill-rule="evenodd" clip-rule="evenodd" d="M65 76.25C65 75.5596 64.4404 75 63.75 75H60V56.25L59.9916 56.1042C59.9194 55.4826 59.391 55 58.75 55H41.25L41.1042 55.0084C40.4825 55.0806 40 55.609 40 56.25V75H36.25L36.1042 75.0084C35.4825 75.0806 35 75.609 35 76.25C35 76.9404 35.5596 77.5 36.25 77.5H63.75L63.8958 77.4916C64.5174 77.4194 65 76.891 65 76.25ZM51.25 63.75V75H57.5V57.4987H42.5V75H48.75V63.75C48.75 63.0596 49.3096 62.5 50 62.5C50.641 62.5 51.1694 62.9826 51.2416 63.6042L51.25 63.75Z" fill="#000091"/>
<path d="M51.25 37.5C51.9404 37.5 52.5 38.0596 52.5 38.75C52.5 39.391 52.0174 39.9194 51.3958 39.9916L51.25 40H48.75C48.109 40 47.5806 39.5175 47.5084 38.8958C47.5029 38.848 47.5 38.7993 47.5 38.75V36.25C47.5 35.5596 48.0596 35 48.75 35C49.391 35 49.9194 35.4825 49.9916 36.1042L50 36.25V37.5H51.25Z" fill="#000091"/>
<path fill-rule="evenodd" clip-rule="evenodd" d="M42.5 37.5C42.5 33.3579 45.8579 30 50 30C54.1421 30 57.5 33.3579 57.5 37.5C57.5 41.6421 54.1421 45 50 45C45.8579 45 42.5 41.6421 42.5 37.5ZM50 32.5C52.7614 32.5 55 34.7386 55 37.5C55 40.2614 52.7614 42.5 50 42.5C47.2386 42.5 45 40.2614 45 37.5C45 34.7386 47.2386 32.5 50 32.5Z" fill="#000091"/>
<path d="M57.5 51.25C57.5 50.5596 56.9404 50 56.25 50H43.75L43.6042 50.0084C42.9826 50.0806 42.5 50.609 42.5 51.25C42.5 51.9404 43.0596 52.5 43.75 52.5H56.25L56.3958 52.4916C57.0174 52.4194 57.5 51.891 57.5 51.25Z" fill="#000091"/>
<path d="M70 81.25C70 80.5596 69.4404 80 68.75 80H31.25L31.1042 80.0084C30.4825 80.0806 30 80.609 30 81.25C30 81.9404 30.5596 82.5 31.25 82.5H68.75L68.8958 82.4916C69.5174 82.4194 70 81.891 70 81.25Z" fill="#000091"/>
<path d="M30.3661 35.3661C30.8543 34.878 31.6457 34.878 32.1339 35.3661C32.5845 35.8167 32.6192 36.5258 32.2379 37.0161L32.1339 37.1339L29.6339 39.6339C29.4385 39.8292 29.1852 39.9532 28.9143 39.9892L28.75 40H12.5V76.25C12.5 76.891 12.0174 77.4194 11.3958 77.4916L11.25 77.5C10.609 77.5 10.0806 77.0174 10.0084 76.3958L10 76.25V38.75C10 38.109 10.4826 37.5806 11.1042 37.5084L11.25 37.5H28.23L30.3661 35.3661Z" fill="#000091"/>
<path d="M83.75 32.5C84.4404 32.5 85 33.0596 85 33.75C85 34.391 84.5174 34.9194 83.8958 34.9916L83.75 35H73.75C73.0596 35 72.5 34.4404 72.5 33.75C72.5 33.109 72.9826 32.5806 73.6042 32.5084L73.75 32.5H83.75Z" fill="#000091"/>
<path d="M88.75 35C89.4404 35 90 34.4404 90 33.75C90 33.0596 89.4404 32.5 88.75 32.5C88.0596 32.5 87.5 33.0596 87.5 33.75C87.5 34.4404 88.0596 35 88.75 35Z" fill="#000091"/>
</svg>

<svg width="100" height="100" fill="none" xmlns="http://www.w3.org/2000/svg"><path fill-rule="evenodd" clip-rule="evenodd" d="M18.75 17.5a1.25 1.25 0 110-2.5 1.25 1.25 0 010 2.5zm-12.5 70a1.25 1.25 0 110-2.5 1.25 1.25 0 010 2.5zm87.5-7.5a1.25 1.25 0 110-2.5 1.25 1.25 0 010 2.5zm-20-65a1.25 1.25 0 110-2.5 1.25 1.25 0 010 2.5z" fill="#CACAFB"/><path d="M17.508 47.003c.1-1.155 1.128-2.003 2.313-2.003h3.929l.146.008A1.25 1.25 0 0125 46.25l-.008.146A1.25 1.25 0 0123.75 47.5H20v5h3.75l.146.008A1.25 1.25 0 0123.75 55h-3.929l-.185-.007c-1.167-.088-2.136-.995-2.136-2.18v-5.626l.008-.184zm17.484 0C34.892 45.848 33.864 45 32.68 45h-3.93l-.146.008A1.25 1.25 0 0027.5 46.25l.008.146A1.25 1.25 0 0028.75 47.5h3.75v5h-3.75l-.146.008A1.25 1.25 0 0028.75 55h3.929l.185-.007c1.167-.088 2.136-.995 2.136-2.18v-5.626l-.008-.184zM80.179 45c1.185 0 2.213.848 2.313 2.003l.008.184v5.626c0 1.185-.969 2.092-2.136 2.18L80.18 55h-3.93a1.25 1.25 0 01-.146-2.492l.146-.008H80v-5h-3.75a1.25 1.25 0 01-1.242-1.104L75 46.25c0-.641.483-1.17 1.104-1.242L76.25 45h3.929zm-15.171 2.003c.1-1.155 1.128-2.003 2.313-2.003h3.929l.146.008A1.25 1.25 0 0172.5 46.25l-.008.146A1.25 1.25 0 0171.25 47.5H67.5v5h3.75l.146.008A1.25 1.25 0 0171.25 55h-3.929l-.185-.007c-1.167-.088-2.136-.995-2.136-2.18v-5.626l.008-.184z" fill="#E1000F"/><path fill-rule="evenodd" clip-rule="evenodd" d="M17.5 60a2.5 2.5 0 00-2.5 2.5V70a2.5 2.5 0 002.5 2.5h5A2.5 2.5 0 0025 70v-7.5a2.5 2.5 0 00-2.5-2.5h-5zm5 10v-7.5h-5V70h5zM30 60a2.5 2.5 0 00-2.5 2.5V70a2.5 2.5 0 002.5 2.5h5a2.5 2.5 0 002.5-2.5v-7.5A2.5 2.5 0 0035 60h-5zm5 10v-7.5h-5V70h5zm30-10a2.5 2.5 0 00-2.5 2.5V70a2.5 2.5 0 002.5 2.5h5a2.5 2.5 0 002.5-2.5v-7.5A2.5 2.5 0 0070 60h-5zm5 10v-7.5h-5V70h5zm7.5-10a2.5 2.5 0 00-2.5 2.5V70a2.5 2.5 0 002.5 2.5h5A2.5 2.5 0 0085 70v-7.5a2.5 2.5 0 00-2.5-2.5h-5zm5 10v-7.5h-5V70h5z" fill="#E1000F"/><path d="M44.634 15.366a1.25 1.25 0 00-1.768 0l-17.5 17.5-.104.118a1.25 1.25 0 001.872 1.65l17.5-17.5.104-.118a1.25 1.25 0 00-.104-1.65zm6.097 2.37a1.25 1.25 0 00-1.588.104l-13.37 12.584-.108.114a1.25 1.25 0 00.054 1.653l.115.107a1.25 1.25 0 001.652-.054L50 20.466l20.033 18.855.16.138a2.5 2.5 0 001.554.541H83.75l.146-.008a1.25 1.25 0 00-.146-2.492H71.746l-20.89-19.66-.125-.104zM88.75 37.5a1.25 1.25 0 00-1.242 1.104l-.008.146V80H76.25a1.25 1.25 0 00-1.242 1.104L75 81.25c0 .641.483 1.17 1.104 1.242l.146.008h12.5a1.25 1.25 0 001.242-1.104L90 81.25v-42.5c0-.69-.56-1.25-1.25-1.25zM26.25 80a1.25 1.25 0 01.146 2.492l-.146.008h-10a1.25 1.25 0 01-.146-2.492L16.25 80h10zM12.5 81.25a1.25 1.25 0 11-2.5 0 1.25 1.25 0 012.5 0z" fill="#000091"/><path fill-rule="evenodd" clip-rule="evenodd" d="M65 76.25c0-.69-.56-1.25-1.25-1.25H60V56.25l-.008-.146A1.25 1.25 0 0058.75 55h-17.5l-.146.008A1.25 1.25 0 0040 56.25V75h-3.75l-.146.008a1.25 1.25 0 00.146 2.492h27.5l.146-.008A1.25 1.25 0 0065 76.25zm-13.75-12.5V75h6.25V57.499h-15V75h6.25V63.75a1.25 1.25 0 012.492-.146l.008.146z" fill="#000091"/><path d="M51.25 37.5a1.25 1.25 0 01.146 2.492L51.25 40h-2.5a1.25 1.25 0 01-1.25-1.25v-2.5a1.25 1.25 0 012.492-.146l.008.146v1.25h1.25z" fill="#000091"/><path fill-rule="evenodd" clip-rule="evenodd" d="M42.5 37.5a7.5 7.5 0 1115 0 7.5 7.5 0 01-15 0zm7.5-5a5 5 0 110 10 5 5 0 010-10z" fill="#000091"/><path d="M57.5 51.25c0-.69-.56-1.25-1.25-1.25h-12.5l-.146.008a1.25 1.25 0 00.146 2.492h12.5l.146-.008A1.25 1.25 0 0057.5 51.25zm12.5 30c0-.69-.56-1.25-1.25-1.25h-37.5l-.146.008a1.25 1.25 0 00.146 2.492h37.5l.146-.008A1.25 1.25 0 0070 81.25zM30.366 35.366a1.25 1.25 0 011.872 1.65l-.104.118-2.5 2.5c-.195.195-.449.32-.72.355L28.75 40H12.5v36.25a1.25 1.25 0 01-1.104 1.242l-.146.008a1.25 1.25 0 01-1.242-1.104L10 76.25v-37.5c0-.641.483-1.17 1.104-1.242l.146-.008h16.98l2.136-2.134zM83.75 32.5a1.25 1.25 0 01.146 2.492L83.75 35h-10a1.25 1.25 0 01-.146-2.492l.146-.008h10zm5 2.5a1.25 1.25 0 100-2.5 1.25 1.25 0 000 2.5z" fill="#000091"/></svg>
